!!!SOCIAL_FUNCTION:	songs connected with ceremonies
!!!PDT:	1929
!!!OTL: No_119_I_Go_Toward_the_East.krn
!!!REG: Southwest
!!!LANG: Non-Tone
!!!LING_GROUP: Uto-Aztecan
**kern
*staff1
=1-
*clefF4
*k[]
*M3/4
4c\
8c\L
8c\J
4c\
=2||
*M2/4
(8.c\L
16A\Jk)
4A\
=3||
*M3/4
16G\LK
8.G\J
4G\
4D\
=4||
*M2/4
4.G\
8D\
=5||
*M3/4
4G\
8G\L
8A\J
4G\
=6||
*M2/4
(8.G\L
16F\Jk)
4F\
=7||
*M3/4
16D\LK
8.D\J
4D\
4AA/
=8
2D\
4r
=9||
*M2/4
4D\
8D\L
8G\J
=10||
*M3/4
Gq/
2G\
4G\
=11
4D\
8.C/L
16AA/Jk
4AA/
=12
4D\
8D\L
8D\J
4D\
=13
4D\
8C/L
8C/J
4r
=14||
*M2/4
4D\
8D\L
8D\J
=15
8D/L
8C/J
4AA/
=16
4.C/
8C/
=17
4C/
4r
=18
[2C/
=19
2C/]
==
*-
